X:1210
L:1/8
Q:1/8=232
M:4/4
K:Gmin
|: d | GG GA B2 Bg | ec gc ac gc | GG GA B2 Ba | ge fd c/c/c ce | GG GA B2 Bg | ec gc ac gc | 
 GG GA B2 Ba | ge fd c/c/c ce | e/f/g gb Bd fd | ec gc ac gc | e/f/g gb Bd fd | ge fd c/c/c cg | 
 e/f/g gb Bd fd | ec gc ac gc | e/f/g gb Bd fd | dB fd c/c/c c :|

